icon-svg/atari-console.svg

<svg xmlns="http://www.w3.org/2000/svg" viewBox="0 0 24 24"><path fill="#44739e" d="m11.573 9.448 2.916 1.015a.1.1 0 0 0 .034.005.1.1 0 0 0 .1-.063l.231-.522a.1.1 0 0 0 0-.085.1.1 0 0 0-.063-.058l-2.854-.979a.105.105 0 0 0-.125.045l-.293.487a.1.1 0 0 0-.008.091.1.1 0 0 0 .062.064m-.026-.137.292-.487a.07.07 0 0 1 .085-.031l2.854.98a.07.07 0 0 1 .042.1l-.231.523a.07.07 0 0 1-.089.038l-2.915-1.019a.07.07 0 0 1-.038-.104m.053.072 2.911 1.017a.04.04 0 0 0 .047-.02l.231-.522a.04.04 0 0 0 0-.03.04.04 0 0 0-.022-.021l-2.854-.98h-.012a.04.04 0 0 0-.032.019l-.293.487a.037.037 0 0 0 .02.054Zm.316-.252 2.568.869-.022.065L11.89 9.2Zm-.711.319 3.395 1.213a.15.15 0 0 0 .188-.077l.389-.81a.152.152 0 0 0-.086-.209L11.77 8.413a.15.15 0 0 0-.178.064l-.465.751a.152.152 0 0 0 .078.222m-.048-.2.464-.751a.12.12 0 0 1 .1-.056.1.1 0 0 1 .039.007l3.319 1.15a.12.12 0 0 1 .07.066.12.12 0 0 1 0 .1l-.39.81a.117.117 0 0 1-.145.06l-3.397-1.218a.12.12 0 0 1-.071-.072.11.11 0 0 1 .011-.1ZM9.073 7.993V8l.03-.011v-.013l-.033.004Zm-.129.052-.017-.013-.035.013.012.014Zm.163-.052v-.008l-.063.1a.1.1 0 0 0 .063-.092m-.199 0a.076.076 0 0 1 .082-.066.09.09 0 0 1 .074.037l.036-.012a.12.12 0 0 0-.107-.059.11.11 0 0 0-.116.1.1.1 0 0 0 .009.038l.032-.012Zm.198-.008h.014l.018.042v-.043l-.01-.026h-.012l-.012.019ZM9.1 7.968l.015-.006.013-.019-.028.009Zm-.21.124-.016-.04.018-.007-.009-.014-.032.011v.006a.1.1 0 0 0 .039.044m.121.032.028-.041a.1.1 0 0 1-.049.009.13.13 0 0 1-.09-.033h-.008l.019.046a.2.2 0 0 0 .075.018Zm.053-.16-.149.055.012.013.143-.052ZM9.072 8l-.128.048a.1.1 0 0 0 .046.013A.08.08 0 0 0 9.072 8m.028.557-.112-.272-.011.015.11.269Zm-.185-.449-.025-.016.055.133.011-.017Zm.341.205.012-.018-.11-.269-.012.018Zm-.116-.329.018.042.011-.017-.03-.073a.1.1 0 0 1 .001.048m-.163.318-.032-.077-.011.018.031.077Zm.301.018-.178.287-.015-.036-.014.011.026.063.2-.324-.018-.044-.011.023Zm-.14-.298a.14.14 0 0 1-.127.1l-.055.084.032.077.158-.241Zm.12.296-.14.223-.018.016.005.012Zm1.097.092.034-.013V8.38l-.033.012Zm-.13.052-.016-.012-.035.013.012.013Zm.164-.052V8.4l-.062.094a.1.1 0 0 0 .062-.084m-.199 0a.075.075 0 0 1 .082-.065.09.09 0 0 1 .073.036l.034-.012a.12.12 0 0 0-.107-.059.11.11 0 0 0-.116.1.1.1 0 0 0 .009.038l.032-.012Zm.21-.01.018.042V8.4l-.01-.026h-.007l-.016.024Zm-.228.109-.016-.04.018-.006-.009-.015-.032.011v.007a.2.2 0 0 0 .039.043m.213-.124.02-.008.009-.013v-.007l-.032.012Zm-.085.156.028-.044a.1.1 0 0 1-.054.012.13.13 0 0 1-.086-.033h-.008l.019.046a.2.2 0 0 0 .075.019Zm.045-.16-.148.055.012.014.143-.053Zm.009.034-.129.047a.1.1 0 0 0 .047.013.08.08 0 0 0 .082-.06m.029.563-.112-.272-.011.017.11.268Zm.158-.246.012-.018-.111-.267-.012.017Zm-.341-.207-.025-.016.056.137.012-.017Zm.06.198-.032-.077-.011.018.032.077Zm.303.016-.179.285-.014-.033-.014.009.024.058.2-.32-.016-.038-.011.018Zm-.141-.339.02.046.011-.017-.032-.077-.007.011a.1.1 0 0 1 .008.037m-.002.039a.15.15 0 0 1-.122.1l-.058.088.031.077.159-.242Zm.124.298v-.005l-.141.224-.017.022v.009Zm5.222 1.668-.017-.013-.035.013.013.014Zm.126-.065.034-.013-.007-.015-.033.012Zm-.064.075-.021.036h.006a.11.11 0 0 0 .117-.1v-.007l-.035.012a.07.07 0 0 1-.067.059m-.097-.063a.074.074 0 0 1 .082-.065.1.1 0 0 1 .07.033l.018-.032a.12.12 0 0 0-.088-.035.11.11 0 0 0-.117.1.1.1 0 0 0 .009.038l.033-.012a.05.05 0 0 1-.007-.027m.211-.012v.009l.011-.02-.005-.011-.026.009v.018Zm.018-.016v.005l.006.017Zm-.248.128-.016-.04.018-.007-.009-.015-.031.012v.006a.2.2 0 0 0 .038.044m.095-.001a.12.12 0 0 1-.08-.032h-.008l.019.046a.2.2 0 0 0 .05.016Zm.065.024a.14.14 0 0 0 .087-.091l-.013-.035Zm.047-.163.033-.012a.1.1 0 0 0-.033-.042l-.018.03a.1.1 0 0 1 .018.024m-.067.061.042-.016v-.012l-.026.009Zm.027-.047-.141.052.011.014.117-.043Zm-.051.089.024-.042-.086.032a.1.1 0 0 0 .047.013Zm.058-.091-.003-.004-.004.006Zm-.148.144-.026-.016.039.094.011-.018Zm.185.475.157-.292-.117-.3v.006a.1.1 0 0 1 0 .032l.107.28-.14.262-.131-.318-.011.018.133.324Zm.162-.278-.161.3-.007-.017-.012.016.017.041.182-.341-.013-.035-.011.02Zm-.117-.355-.006-.014h-.01l.008.024Zm-.184.316-.033-.08-.01.019.033.08Zm.029-.14h-.025l-.026.044.033.08.077-.133a.2.2 0 0 1-.059.009m1.249.322-.016-.012-.036.013.013.014Zm.127-.063.001-.002h-.002Zm.001-.002.032-.012-.007-.016h-.012Zm-.04.068-.025.043a.11.11 0 0 0 .1-.1v-.008l-.035.013a.06.06 0 0 1-.04.052m-.123-.055a.075.075 0 0 1 .082-.065.09.09 0 0 1 .073.036l.021-.008.007-.012a.12.12 0 0 0-.1-.051.11.11 0 0 0-.117.1.1.1 0 0 0 .009.038l.033-.012Zm.211-.013.013.032.009-.016v-.009l-.011-.029-.026.01v.017Zm-.229.112-.017-.039.018-.007-.011-.015-.031.012v.006a.14.14 0 0 0 .041.043m.19.007a.13.13 0 0 0 .055-.075v-.012Zm-.074-.008h-.016a.13.13 0 0 1-.086-.032h-.008l.019.046a.15.15 0 0 0 .071.018Zm.09-.139.033-.012-.019-.028-.019.032Zm-.025.046v-.011l-.013.021Zm-.008-.034-.148.055.012.014.142-.053Zm-.032.084.026-.045-.114.042a.09.09 0 0 0 .088 0Zm-.116.06a.1.1 0 0 1-.025-.016l.048.117.011-.019Zm.347.198-.119-.313v.028l.108.281-.141.262-.122-.3-.01.019.13.318Zm-.119-.313.011-.019-.015-.038h-.01a.1.1 0 0 1 .011.047Zm-.044.654.182-.34-.005-.014-.183.34Zm-.128-.358-.033-.08-.011.019.033.08Zm.019-.162-.037.064.032.08.1-.171a.17.17 0 0 1-.095.027m.463-.164a.15.15 0 0 0 .012-.154.12.12 0 0 0-.1-.05h-.012a.14.14 0 0 0-.121.082l-.075.13.122.319ZM6.571 8.016l12.745 4.519h.007v-.006l.4-1.569a.01.01 0 0 0-.006-.011L7.586 6.78h-.007L6.567 8v.01Zm10.336 3.213.139-.238-.074-.179a.1.1 0 0 1-.014-.056.144.144 0 0 1 .151-.134.16.16 0 0 1 .12.053l.059-.1a.21.21 0 0 1 .178-.12.19.19 0 0 1 .176.08.21.21 0 0 1-.009.224l-.361.672a.25.25 0 0 1-.212.116.23.23 0 0 1-.113-.029c-.074-.045-.123-.143-.04-.289m-1.289-.453.123-.211-.065-.157a.1.1 0 0 1-.014-.056.143.143 0 0 1 .151-.133.16.16 0 0 1 .106.039l.08-.138a.21.21 0 0 1 .178-.12.19.19 0 0 1 .176.08.21.21 0 0 1-.009.223l-.361.673a.25.25 0 0 1-.212.116.23.23 0 0 1-.113-.029c-.074-.043-.123-.142-.04-.287M11.1 9.21l.464-.751a.185.185 0 0 1 .22-.078L15.1 9.535a.186.186 0 0 1 .105.256l-.389.81a.19.19 0 0 1-.167.1.2.2 0 0 1-.063-.011l-3.392-1.207a.2.2 0 0 1-.113-.114.2.2 0 0 1 .019-.159m-1.01-.352.127-.194-.082-.2a.13.13 0 0 1-.014-.056.144.144 0 0 1 .151-.134.15.15 0 0 1 .139.081h.01l.1-.158a.25.25 0 0 1 .205-.131.17.17 0 0 1 .162.067.18.18 0 0 1-.01.189l-.424.672a.29.29 0 0 1-.242.129.2.2 0 0 1-.1-.025c-.026-.018-.112-.085-.022-.24m-1.284-.421.128-.194-.08-.2a.1.1 0 0 1-.015-.055.144.144 0 0 1 .151-.134.15.15 0 0 1 .139.081h.005l.107-.163a.25.25 0 0 1 .205-.131.17.17 0 0 1 .162.066.18.18 0 0 1-.01.19l-.424.672a.29.29 0 0 1-.243.129.2.2 0 0 1-.1-.025c-.031-.013-.114-.08-.025-.236m6.872 2.373c-.05.088-.045.159.015.2a.18.18 0 0 0 .212-.039l-.131-.321Zm-6.14-2.944a.13.13 0 0 0 .013-.118.1.1 0 0 0-.087-.036h-.013a.18.18 0 0 0-.149.1l-.13.2.11.268ZM6.2 8.114l-.157.164 13.529 4.967 1.9-2.132-.646-.9L8.168 5.888l-.631.562-1.03 1.363Zm1.323-1.375a.08.08 0 0 1 .086-.024l12.138 4.169a.08.08 0 0 1 .05.093l-.4 1.569a.07.07 0 0 1-.039.049.1.1 0 0 1-.036.009h-.026L6.548 8.081a.08.08 0 0 1-.048-.053.08.08 0 0 1 .015-.071Zm9.444 4.524c-.05.088-.045.159.015.2a.18.18 0 0 0 .23-.062l-.133-.325Zm-6.145-2.977a.13.13 0 0 0 .013-.118.1.1 0 0 0-.087-.036h-.013a.18.18 0 0 0-.149.094l-.131.2.111.266Zm5.461 1.986a.15.15 0 0 0 .013-.154.12.12 0 0 0-.1-.049h-.011a.15.15 0 0 0-.122.082l-.091.156.123.321ZM8.864 8.473c-.022.039-.053.112 0 .144a.2.2 0 0 0 .207-.035l-.106-.262Zm1.284.42c-.022.039-.053.112 0 .144A.2.2 0 0 0 10.356 9l-.107-.262Zm9.201 4.379L5.93 8.324l-.228.201 13.452 4.931Zm-.264.305L5.602 8.607l-.228.201 13.513 4.96Zm-.304.328L5.247 8.917l-.227.202 13.565 4.988Zm-.31.323L4.935 9.215l-.228.201 13.59 5Zm-.268.298L4.609 9.5l-.227.201 13.643 5.019Zm-.273.317L4.259 9.828l-.228.201 13.704 5.024Zm-.295.34L3.906 10.138l-.199.176 13.745 5.074Zm-.305.337L3.54 10.436l-.228.201 13.83 5.106Zm-.264.322L3.215 10.721l-.228.201 13.889 5.142Zm-14.361-4.66a.36.36 0 0 0-.1.366l.282.955 12.799 4.964c.169.066.358.072.412-.1l.168-.5a1.1 1.1 0 0 1 .215-.328l.341-.356-13.935-5.172Zm19.22-.228-.615-.217.074.137.282.152-4.96 5.509a1.9 1.9 0 0 0-.332.515l-.088.2-.119.319a.23.23 0 0 1-.276.12L2.8 12.61l-.069-.21-.107-.353-.156-.513a1 1 0 0 1-.025-.126.23.23 0 0 1 .077-.2l3.027-2.629.941-.879.478-.64-4.472 3.862-.364.334a.274.274 0 0 0-.112.331l.377.991.02.048a.7.7 0 0 0 .166.244l.148.12.183.094 12.64 4.883.312.112.192.033h.156l.141-.03.045-.037 5.119-5.965.472-.984a.1.1 0 0 0-.064-.142"/></svg>

<?xml version="1.0" encoding="UTF-8"?>
<svg width="24px" fill="#44739e" height="24px" viewBox="0 0 24 24" version="1.1" xmlns="http://www.w3.org/2000/svg" xmlns:xlink="http://www.w3.org/1999/xlink">
            <path d="m 11.573,9.448 2.916,1.015 a 0.1,0.1 0 0 0 0.034,0.005 0.1,0.1 0 0 0 0.1,-0.063 l 0.231,-0.522 a 0.1,0.1 0 0 0 0,-0.085 A 0.109,0.109 0 0 0 14.791,9.74 L 11.937,8.761 a 0.105,0.105 0 0 0 -0.125,0.045 l -0.293,0.487 a 0.108,0.108 0 0 0 -0.008,0.091 0.107,0.107 0 0 0 0.062,0.064 z M 11.547,9.311 11.839,8.824 a 0.072,0.072 0 0 1 0.085,-0.031 l 2.854,0.98 a 0.07,0.07 0 0 1 0.042,0.1 l -0.231,0.523 A 0.072,0.072 0 0 1 14.5,10.434 L 11.585,9.415 A 0.071,0.071 0 0 1 11.547,9.311 Z M 11.6,9.383 14.511,10.4 a 0.039,0.039 0 0 0 0.047,-0.02 l 0.231,-0.522 a 0.039,0.039 0 0 0 0,-0.03 0.038,0.038 0 0 0 -0.022,-0.021 l -2.854,-0.98 h -0.012 a 0.036,0.036 0 0 0 -0.032,0.019 l -0.293,0.487 a 0.037,0.037 0 0 0 0.02,0.054 z M 11.916,9.131 14.484,10 14.462,10.065 11.89,9.2 Z M 11.205,9.45 14.6,10.663 a 0.152,0.152 0 0 0 0.188,-0.077 l 0.39,-0.81 A 0.152,0.152 0 0 0 15.091,9.567 L 11.77,8.413 a 0.15,0.15 0 0 0 -0.178,0.064 l -0.465,0.751 a 0.152,0.152 0 0 0 0.078,0.222 z m -0.048,-0.2 0.464,-0.751 a 0.115,0.115 0 0 1 0.1,-0.056 0.107,0.107 0 0 1 0.039,0.007 l 3.319,1.15 a 0.117,0.117 0 0 1 0.07,0.066 0.115,0.115 0 0 1 0,0.1 l -0.39,0.81 a 0.117,0.117 0 0 1 -0.145,0.06 L 11.217,9.418 a 0.115,0.115 0 0 1 -0.071,-0.072 0.114,0.114 0 0 1 0.011,-0.1 z M 9.073,7.993 V 8 l 0.03,-0.011 v 0 -0.013 L 9.07,7.98 Z M 8.944,8.045 A 0.076,0.076 0 0 1 8.927,8.032 L 8.892,8.045 8.904,8.059 Z M 9.107,7.993 v -0.008 0 l -0.063,0.1 A 0.1,0.1 0 0 0 9.107,7.993 Z m -0.199,0 A 0.076,0.076 0 0 1 8.99,7.927 0.086,0.086 0 0 1 9.064,7.964 L 9.1,7.952 A 0.12,0.12 0 0 0 8.993,7.893 0.109,0.109 0 0 0 8.877,7.993 0.085,0.085 0 0 0 8.886,8.031 L 8.918,8.019 A 0.059,0.059 0 0 1 8.908,7.993 Z M 9.106,7.985 H 9.12 l 0.018,0.042 a 0.143,0.143 0 0 0 0,-0.029 V 7.984 L 9.128,7.958 H 9.116 L 9.104,7.977 Z M 9.1,7.968 9.115,7.962 9.128,7.943 v 0 L 9.1,7.952 Z M 8.89,8.092 8.874,8.052 8.892,8.045 8.883,8.031 8.851,8.042 V 8.048 A 0.127,0.127 0 0 0 8.89,8.092 Z M 9.011,8.124 9.039,8.083 A 0.13,0.13 0 0 1 8.99,8.092 0.127,0.127 0 0 1 8.9,8.059 H 8.892 L 8.911,8.105 A 0.169,0.169 0 0 0 8.986,8.123 Z M 9.064,7.964 8.915,8.019 A 0.074,0.074 0 0 0 8.927,8.032 L 9.07,7.98 A 0.076,0.076 0 0 0 9.064,7.964 Z M 9.072,8 8.944,8.048 A 0.1,0.1 0 0 0 8.99,8.061 0.077,0.077 0 0 0 9.072,8 Z M 9.1,8.557 8.988,8.285 8.977,8.3 9.087,8.569 Z M 8.915,8.108 8.89,8.092 8.945,8.225 8.956,8.208 Z M 9.256,8.313 9.268,8.295 9.158,8.026 9.146,8.044 Z M 9.14,7.984 9.158,8.026 9.169,8.009 9.139,7.936 v 0 0 A 0.143,0.143 0 0 1 9.14,7.984 Z M 8.977,8.302 8.945,8.225 8.934,8.243 8.965,8.32 Z M 9.278,8.32 9.1,8.607 9.085,8.571 9.071,8.582 9.097,8.645 9.297,8.321 9.279,8.277 9.268,8.3 Z M 9.138,8.022 a 0.144,0.144 0 0 1 -0.127,0.1 L 8.956,8.206 8.988,8.283 9.146,8.042 Z m 0.12,0.296 v 0 L 9.118,8.541 9.1,8.557 9.105,8.569 Z m 1.097,0.092 v 0 L 10.389,8.397 V 8.38 L 10.356,8.392 Z M 10.225,8.462 10.209,8.45 10.174,8.463 10.186,8.476 Z M 10.389,8.41 V 8.4 L 10.327,8.494 A 0.1,0.1 0 0 0 10.389,8.41 Z m -0.199,0 a 0.075,0.075 0 0 1 0.082,-0.065 0.085,0.085 0 0 1 0.073,0.036 L 10.379,8.369 A 0.12,0.12 0 0 0 10.272,8.31 0.109,0.109 0 0 0 10.156,8.41 0.085,0.085 0 0 0 10.165,8.448 L 10.197,8.436 A 0.059,0.059 0 0 1 10.19,8.41 Z M 10.4,8.4 10.418,8.442 a 0.143,0.143 0 0 0 0,-0.029 V 8.4 L 10.408,8.374 H 10.401 L 10.385,8.398 Z M 10.172,8.509 10.156,8.469 10.174,8.463 10.165,8.448 10.133,8.459 v 0.007 a 0.151,0.151 0 0 0 0.039,0.043 z m 0.213,-0.124 0.02,-0.008 0.009,-0.013 V 8.357 L 10.382,8.369 Z M 10.3,8.541 10.328,8.497 A 0.119,0.119 0 0 1 10.274,8.509 0.127,0.127 0 0 1 10.188,8.476 H 10.18 l 0.019,0.046 a 0.158,0.158 0 0 0 0.075,0.019 z m 0.089,-0.14 -10e-4,10e-4 V 8.403 Z M 10.345,8.381 10.197,8.436 A 0.075,0.075 0 0 0 10.209,8.45 L 10.352,8.397 A 0.056,0.056 0 0 0 10.345,8.381 Z m 0.009,0.034 -0.129,0.047 a 0.1,0.1 0 0 0 0.047,0.013 0.077,0.077 0 0 0 0.082,-0.06 z M 10.383,8.978 10.271,8.706 10.26,8.723 10.37,8.991 Z M 10.541,8.732 10.553,8.714 10.442,8.447 10.43,8.464 Z M 10.2,8.525 10.175,8.509 10.231,8.646 10.243,8.629 Z m 0.06,0.198 -0.032,-0.077 -0.011,0.018 0.032,0.077 z M 10.563,8.739 10.384,9.024 10.37,8.991 10.356,9 10.38,9.058 10.58,8.738 10.564,8.7 10.553,8.718 Z M 10.422,8.4 10.442,8.446 10.453,8.429 10.421,8.352 v 0 L 10.414,8.363 A 0.117,0.117 0 0 1 10.422,8.4 Z M 10.42,8.439 a 0.146,0.146 0 0 1 -0.122,0.1 L 10.24,8.627 10.271,8.704 10.43,8.462 Z m 0.124,0.298 V 8.732 l -0.141,0.224 a 0.184,0.184 0 0 1 -0.017,0.022 v 0.009 z m 5.223,1.668 A 0.109,0.109 0 0 1 15.75,10.392 l -0.035,0.013 0.013,0.014 z m 0.126,-0.065 0.034,-0.013 -0.007,-0.015 -0.033,0.012 a 0.044,0.044 0 0 1 0.006,0.016 z m -0.064,0.075 -0.021,0.036 h 0.006 a 0.11,0.11 0 0 0 0.117,-0.1 v -0.007 l -0.035,0.012 a 0.071,0.071 0 0 1 -0.067,0.059 z m -0.097,-0.063 a 0.074,0.074 0 0 1 0.082,-0.065 0.087,0.087 0 0 1 0.07,0.033 l 0.018,-0.032 a 0.124,0.124 0 0 0 -0.088,-0.035 0.109,0.109 0 0 0 -0.117,0.1 0.079,0.079 0 0 0 0.009,0.038 l 0.033,-0.012 a 0.046,0.046 0 0 1 -0.007,-0.027 z m 0.211,-0.012 v 0.009 l 0.011,-0.02 -0.005,-0.011 -0.026,0.009 v 0.018 z m 0.018,-0.016 v 0.005 l 0.006,0.017 z m -0.248,0.128 -0.016,-0.04 0.018,-0.007 -0.009,-0.015 -0.031,0.012 v 0.006 a 0.151,0.151 0 0 0 0.038,0.044 z m 0.095,-10e-4 a 0.121,0.121 0 0 1 -0.08,-0.032 H 15.72 l 0.019,0.046 a 0.163,0.163 0 0 0 0.05,0.016 z m 0.065,0.024 A 0.138,0.138 0 0 0 15.96,10.384 L 15.947,10.349 Z M 15.92,10.312 15.953,10.3 A 0.123,0.123 0 0 0 15.92,10.258 l -0.018,0.03 a 0.084,0.084 0 0 1 0.018,0.024 z m -0.067,0.061 0.042,-0.016 v 0 -0.012 l -0.026,0.009 z m 0.027,-0.047 -0.141,0.052 a 0.053,0.053 0 0 0 0.011,0.014 l 0.117,-0.043 z m -0.051,0.089 0.024,-0.042 -0.086,0.032 a 0.1,0.1 0 0 0 0.047,0.013 z m 0.058,-0.091 -0.003,-0.004 -0.004,0.006 z m -0.148,0.144 a 0.226,0.226 0 0 1 -0.026,-0.016 l 0.039,0.094 0.011,-0.018 z m 0.185,0.475 0.157,-0.292 -0.117,-0.3 v 0.006 a 0.113,0.113 0 0 1 0,0.032 l 0.107,0.28 -0.14,0.262 -0.131,-0.318 -0.011,0.018 0.133,0.324 z m 0.162,-0.278 -0.161,0.3 -0.007,-0.017 -0.012,0.016 0.017,0.041 0.182,-0.341 -0.013,-0.035 -0.011,0.02 z M 15.969,10.31 15.963,10.296 h -0.01 a 0.135,0.135 0 0 1 0.008,0.024 z m -0.184,0.316 -0.033,-0.08 -0.01,0.019 0.033,0.08 z m 0.029,-0.14 h -0.025 l -0.026,0.044 0.033,0.08 0.077,-0.133 a 0.163,0.163 0 0 1 -0.059,0.009 z m 1.249,0.322 a 0.048,0.048 0 0 1 -0.016,-0.012 l -0.036,0.013 0.013,0.014 z m 0.127,-0.063 10e-4,-0.002 h -0.002 z m 10e-4,-0.002 0.032,-0.012 -0.007,-0.016 h -0.012 z m -0.04,0.068 -0.025,0.043 a 0.107,0.107 0 0 0 0.1,-0.1 v -0.008 l -0.035,0.013 a 0.062,0.062 0 0 1 -0.04,0.052 z m -0.123,-0.055 a 0.075,0.075 0 0 1 0.082,-0.065 0.086,0.086 0 0 1 0.073,0.036 l 0.021,-0.008 0.007,-0.012 a 0.12,0.12 0 0 0 -0.1,-0.051 0.11,0.11 0 0 0 -0.117,0.1 0.085,0.085 0 0 0 0.009,0.038 l 0.033,-0.012 a 0.048,0.048 0 0 1 -0.008,-0.026 z m 0.211,-0.013 0.013,0.032 0.009,-0.016 V 10.75 l -0.011,-0.029 -0.026,0.01 v 0.017 z M 17.01,10.855 16.993,10.816 17.011,10.809 17,10.794 16.969,10.806 v 0.006 a 0.137,0.137 0 0 0 0.041,0.043 z m 0.19,0.007 a 0.13,0.13 0 0 0 0.055,-0.075 V 10.775 Z M 17.126,10.854 H 17.11 a 0.125,0.125 0 0 1 -0.086,-0.032 h -0.008 l 0.019,0.046 a 0.153,0.153 0 0 0 0.071,0.018 z m 0.09,-0.139 0.033,-0.012 A 0.173,0.173 0 0 0 17.23,10.675 l -0.019,0.032 z m -0.025,0.046 v 0 -0.011 l -0.013,0.021 z m -0.008,-0.034 -0.148,0.055 a 0.053,0.053 0 0 0 0.012,0.014 l 0.142,-0.053 a 0.052,0.052 0 0 0 -0.006,-0.016 z m -0.032,0.084 0.026,-0.045 -0.114,0.042 a 0.09,0.09 0 0 0 0.088,0 z m -0.116,0.06 A 0.107,0.107 0 0 1 17.01,10.855 l 0.048,0.117 0.011,-0.019 z m 0.347,0.198 -0.119,-0.313 v 0 a 0.126,0.126 0 0 1 0,0.028 l 0.108,0.281 -0.141,0.262 -0.122,-0.3 -0.01,0.019 0.13,0.318 z m -0.119,-0.313 0.011,-0.019 -0.015,-0.038 h -0.01 a 0.124,0.124 0 0 1 0.011,0.047 z m -0.044,0.654 0.182,-0.34 -0.005,-0.014 -0.183,0.34 z m -0.128,-0.358 -0.033,-0.08 -0.011,0.019 0.033,0.08 z M 17.11,10.89 v 0 l -0.037,0.064 0.032,0.08 0.1,-0.171 A 0.166,0.166 0 0 1 17.11,10.89 Z m 0.463,-0.164 a 0.15,0.15 0 0 0 0.012,-0.154 0.119,0.119 0 0 0 -0.1,-0.05 h -0.012 a 0.144,0.144 0 0 0 -0.121,0.082 v 0 l -0.075,0.13 0.122,0.319 z M 6.571,8.016 19.317,12.535 h 0.007 v -0.006 l 0.4,-1.569 A 0.01,0.01 0 0 0 19.718,10.949 L 7.586,6.78 v 0 H 7.579 L 6.567,8 v 0.01 z m 10.337,3.213 0.139,-0.238 -0.074,-0.179 a 0.119,0.119 0 0 1 -0.014,-0.056 0.144,0.144 0 0 1 0.151,-0.134 0.159,0.159 0 0 1 0.12,0.053 l 0.059,-0.1 a 0.212,0.212 0 0 1 0.178,-0.12 0.193,0.193 0 0 1 0.176,0.08 0.213,0.213 0 0 1 -0.009,0.224 l -0.361,0.672 a 0.246,0.246 0 0 1 -0.212,0.116 0.226,0.226 0 0 1 -0.113,-0.029 c -0.074,-0.045 -0.123,-0.143 -0.04,-0.289 z m -1.289,-0.453 0.123,-0.211 -0.065,-0.157 a 0.119,0.119 0 0 1 -0.014,-0.056 0.143,0.143 0 0 1 0.151,-0.133 0.155,0.155 0 0 1 0.106,0.039 L 16,10.12 a 0.209,0.209 0 0 1 0.178,-0.12 0.191,0.191 0 0 1 0.176,0.08 0.211,0.211 0 0 1 -0.009,0.223 l -0.361,0.673 a 0.248,0.248 0 0 1 -0.212,0.116 0.226,0.226 0 0 1 -0.113,-0.029 C 15.585,11.02 15.536,10.921 15.619,10.776 Z M 11.1,9.21 11.564,8.459 a 0.185,0.185 0 0 1 0.22,-0.078 L 15.1,9.535 a 0.186,0.186 0 0 1 0.106,0.256 l -0.39,0.81 a 0.186,0.186 0 0 1 -0.167,0.1 0.174,0.174 0 0 1 -0.063,-0.011 L 11.194,9.483 A 0.188,0.188 0 0 1 11.081,9.369 0.186,0.186 0 0 1 11.1,9.21 Z m -1.01,-0.352 0.127,-0.194 -0.082,-0.2 a 0.132,0.132 0 0 1 -0.014,-0.056 0.144,0.144 0 0 1 0.151,-0.134 0.152,0.152 0 0 1 0.139,0.081 h 0.01 l 0.1,-0.158 a 0.248,0.248 0 0 1 0.205,-0.131 0.171,0.171 0 0 1 0.162,0.067 0.177,0.177 0 0 1 -0.01,0.189 l -0.424,0.672 a 0.29,0.29 0 0 1 -0.242,0.129 0.192,0.192 0 0 1 -0.1,-0.025 C 10.086,9.08 10,9.013 10.09,8.858 Z M 8.806,8.437 8.934,8.243 8.854,8.043 A 0.116,0.116 0 0 1 8.839,7.988 0.144,0.144 0 0 1 8.99,7.854 0.151,0.151 0 0 1 9.129,7.935 H 9.134 L 9.241,7.772 A 0.247,0.247 0 0 1 9.446,7.641 0.174,0.174 0 0 1 9.608,7.707 0.179,0.179 0 0 1 9.598,7.897 L 9.174,8.569 A 0.29,0.29 0 0 1 8.931,8.698 0.2,0.2 0 0 1 8.831,8.673 C 8.8,8.66 8.717,8.593 8.806,8.437 Z m 6.873,2.373 c -0.05,0.088 -0.045,0.159 0.015,0.2 a 0.179,0.179 0 0 0 0.212,-0.039 L 15.775,10.65 Z M 9.538,7.866 A 0.126,0.126 0 0 0 9.551,7.748 0.1,0.1 0 0 0 9.464,7.712 H 9.451 a 0.181,0.181 0 0 0 -0.149,0.1 v 0 l -0.13,0.2 0.11,0.268 z M 6.2,8.114 6.043,8.278 l 13.53,4.967 1.9,-2.132 -0.646,-0.9 L 8.168,5.888 7.537,6.45 6.507,7.813 Z M 7.523,6.739 A 0.078,0.078 0 0 1 7.609,6.715 l 12.139,4.169 a 0.078,0.078 0 0 1 0.05,0.093 l -0.4,1.569 a 0.074,0.074 0 0 1 -0.039,0.049 0.077,0.077 0 0 1 -0.036,0.009 0.075,0.075 0 0 1 -0.026,0 L 6.548,8.081 A 0.081,0.081 0 0 1 6.5,8.028 0.082,0.082 0 0 1 6.515,7.957 Z m 9.445,4.524 c -0.05,0.088 -0.045,0.159 0.015,0.2 a 0.178,0.178 0 0 0 0.23,-0.062 v 0 L 17.08,11.076 Z M 10.822,8.286 A 0.126,0.126 0 0 0 10.835,8.168 0.1,0.1 0 0 0 10.748,8.132 h -0.013 a 0.177,0.177 0 0 0 -0.149,0.094 v 0 l -0.131,0.2 0.111,0.266 z m 5.462,1.986 a 0.153,0.153 0 0 0 0.013,-0.154 0.121,0.121 0 0 0 -0.1,-0.049 h -0.011 a 0.146,0.146 0 0 0 -0.122,0.082 v 0 l -0.091,0.156 0.123,0.321 z M 8.864,8.473 c -0.022,0.039 -0.053,0.112 0,0.144 A 0.2,0.2 0 0 0 9.071,8.582 L 8.965,8.32 Z m 1.284,0.42 c -0.022,0.039 -0.053,0.112 0,0.144 A 0.2,0.2 0 0 0 10.356,9 L 10.249,8.738 Z M 19.35,13.272 5.93,8.324 5.702,8.525 19.155,13.456 Z M 19.086,13.577 5.602,8.607 5.374,8.808 18.888,13.768 Z M 18.782,13.905 5.247,8.917 5.02,9.119 18.586,14.107 Z m -0.31,0.323 -13.537,-5.013 -0.228,0.201 13.591,5 z M 18.204,14.526 4.609,9.5 4.382,9.701 18.026,14.72 Z M 17.931,14.843 4.259,9.828 4.031,10.029 17.736,15.053 Z m -0.295,0.34 -13.73,-5.045 -0.199,0.176 13.746,5.074 z M 17.331,15.52 3.54,10.436 3.312,10.637 17.143,15.743 Z m -0.264,0.322 -13.852,-5.121 -0.228,0.201 13.89,5.142 z M 2.705,11.182 a 0.362,0.362 0 0 0 -0.1,0.366 l 0.282,0.955 12.8,4.964 c 0.169,0.066 0.358,0.072 0.412,-0.1 l 0.168,-0.5 a 1.1,1.1 0 0 1 0.215,-0.328 L 16.823,16.183 2.887,11.011 Z m 19.221,-0.228 -0.615,-0.217 0.074,0.137 0.282,0.152 -4.96,5.509 a 1.892,1.892 0 0 0 -0.332,0.515 l -0.088,0.2 -0.119,0.319 a 0.233,0.233 0 0 1 -0.276,0.12 L 2.8,12.61 2.731,12.4 2.624,12.047 2.468,11.534 A 0.669,0.669 0 0 1 2.443,11.408 0.226,0.226 0 0 1 2.52,11.208 L 5.547,8.579 6.488,7.7 6.966,7.06 2.494,10.922 2.13,11.256 a 0.274,0.274 0 0 0 -0.112,0.331 l 0.377,0.991 0.02,0.048 a 0.692,0.692 0 0 0 0.166,0.244 l 0.148,0.12 0.183,0.094 12.641,4.883 0.312,0.112 0.192,0.033 h 0.156 l 0.141,-0.03 0.045,-0.037 5.119,-5.965 0.472,-0.984 a 0.1,0.1 0 0 0 -0.064,-0.142 z"/>

</svg>
